shelter/assets/icons/icon-medicines.svg

<svg fill="none" height="60" viewBox="0 0 60 60" width="60" xmlns="http://www.w3.org/2000/svg"><g fill="#f1cdb3"><path d="m59.6564 15.8985-15.555-15.555375c-.4576-.4575-1.1994-.4575-1.6574 0l-4.1426 4.142345c-.2197.21978-.3432.51784-.3432.82863s.1235.60885.3432.82863l4.9211 4.92097-4.6589 4.6589-7.1711-7.17108c-.4577-.45761-1.1996-.4575-1.6574 0l-4.7584 4.75838c-.2197.2198-.3431.5179-.3431.8287 0 .3107.1234.6088.3431.8286l1.5113 1.5112-19.42291 19.4236c-1.78477 1.7848-1.78477 4.6891 0 6.4742l1.49121 1.4912-2.73422 2.7342c-.10883.1088-.19516.238-.25406.3802s-.08921.2945-.08921.4484.03031.3063.08921.4485.14523.2714.25406.3802l2.1307 2.1308-7.609567 7.6094c-.457617.4577-.457617 1.1997 0 1.6574.228867.2289.52875.3433.828637.3433.29988 0 .59988-.1144.82863-.3433l7.60969-7.6097 2.13083 2.1309c.2198.2197.5178.3431.8286.3431s.6089-.1234.8287-.3431l2.7342-2.7343 1.4912 1.4913c.8646.8646 2.0143 1.3407 3.2371 1.3407 1.2227 0 2.3724-.4761 3.237-1.3407l19.4231-19.4231 1.5113 1.5113c.1087.109.2379.1954.3801.2543s.2946.0891.4485.0889c.3 0 .5998-.1143.8287-.3432l4.7582-4.7584c.2198-.2198.3432-.5179.3432-.8286 0-.3108-.1234-.6089-.3432-.8287l-7.171-7.171 4.6589-4.6589 4.9209 4.9209c.1087.109.2379.1954.3801.2543s.2946.0891.4486.0889c.3 0 .5997-.1143.8286-.3432l4.1425-4.1425c.4578-.4575.4578-1.1995.0001-1.6572zm-34.9206 5.6475 5.4218 5.4218c.1087.109.2378.1954.38.2543.1423.0589.2947.0891.4486.0889.3 0 .5998-.1144.8287-.3432.4576-.4576.4576-1.1997 0-1.6573l-5.4218-5.4218 1.7523-1.7523 10.0886 10.0887-5.3593 5.3593-10.0888-10.0888zm-12.1662 30.1456-4.26162-4.2615 1.90572-1.9055 4.2614 4.2615zm9.8707-.4143c-.8709.8709-2.2883.871-3.1592 0l-10.55875-10.5586c-.87105-.8711-.87105-2.2885 0-3.1594l1.66925-1.6692 2.8856 2.8856c.2289.2289.5287.3432.8286.3432s.5999-.1143.8287-.3432c.4576-.4576.4576-1.1996 0-1.6574l-2.8857-2.8856 1.9286-1.9287 5.4217 5.4217c.2288.2289.5287.3432.8286.3432s.5999-.1144.8286-.3432c.4577-.4576.4577-1.1996 0-1.6573l-5.4218-5.4218 1.9287-1.9286 2.8856 2.8856c.2289.2289.5288.3432.8287.3432s.5999-.1143.8286-.3432c.4576-.4576.4576-1.1997 0-1.6574l-2.8856-2.8856 1.9076-1.9076 10.0887 10.0887-7.6208 7.6209c-.4576.4576-.4576 1.1997 0 1.6574.2289.2289.5288.3432.8287.3432.2998 0 .5998-.1145.8286-.3432l7.6208-7.6209 1.9718 1.9718zm14.0638-14.0636-1.9718-1.972 5.3594-5.3595 1.9717 1.9718zm12.4577-7.7778-3.101 3.101-18.3981-18.398 3.1011-3.101zm-6.3423-9.657-2.3987-2.3987 4.6589-4.659 2.3987 2.3987zm12.066-.5666-13.898-13.89808 2.4852-2.4852 13.898 13.89798z"/><path d="m22.3156 46.7207c-.014-.075-.0375-.1488-.0668-.2191-.0291-.071-.0652-.1389-.1078-.2028-.0422-.0644-.0914-.1242-.1453-.1781s-.1137-.1031-.1781-.1453c-.0639-.0426-.1318-.0787-.2028-.1078-.0703-.0293-.1441-.0516-.2191-.0668-.1508-.0305-.3062-.0305-.457 0-.075.0152-.1489.0375-.2192.0668-.0715.0293-.1394.0656-.2027.1078-.0645.0422-.1242.0914-.1781.1453s-.1032.1137-.1453.1781c-.0422.0632-.0786.1313-.1079.2028-.0293.0703-.0527.1441-.0668.2191-.0152.075-.0234.1524-.0234.2285 0 .0762.0082.1536.0234.2297.0141.0739.0375.1477.0668.2192.0293.0703.0657.1383.1079.2015.0421.0645.0914.1243.1453.1782.1087.1093.2382.1957.3808.2543.1418.0592.294.0895.4477.089.1536.0005.3058-.0298.4476-.089.1427-.0586.2722-.145.3809-.2543.0539-.0539.1031-.1137.1453-.1782.0422-.0632.0785-.1312.1078-.2015.0293-.0715.0528-.1453.0668-.2192.0153-.0761.0235-.1535.0235-.2297 0-.0761-.0082-.1535-.0235-.2285z"/></g></svg>

<svg width="60" height="60" viewBox="0 0 60 60" fill="none" xmlns="http://www.w3.org/2000/svg">
<path d="M59.6564 15.8985L44.1014 0.343125C43.6438 -0.114375 42.902 -0.114375 42.444 0.343125L38.3014 4.48547C38.0817 4.70525 37.9582 5.00331 37.9582 5.3141C37.9582 5.62489 38.0817 5.92295 38.3014 6.14273L43.2225 11.0637L38.5636 15.7226L31.3925 8.55152C30.9348 8.09391 30.1929 8.09402 29.7351 8.55152L24.9767 13.3099C24.757 13.5297 24.6336 13.8278 24.6336 14.1386C24.6336 14.4493 24.757 14.7474 24.9767 14.9672L26.488 16.4784L7.06509 35.902C5.28032 37.6868 5.28032 40.5911 7.06509 42.3762L8.5563 43.8674L5.82208 46.6016C5.71325 46.7104 5.62692 46.8396 5.56802 46.9818C5.50912 47.124 5.47881 47.2763 5.47881 47.4302C5.47881 47.5841 5.50912 47.7365 5.56802 47.8787C5.62692 48.0209 5.71325 48.1501 5.82208 48.2589L7.95278 50.3897L0.343213 57.9991C-0.114404 58.4568 -0.114404 59.1988 0.343213 59.6565C0.57208 59.8854 0.871963 59.9998 1.17185 59.9998C1.47173 59.9998 1.77173 59.8854 2.00048 59.6565L9.61017 52.0468L11.741 54.1777C11.9608 54.3974 12.2588 54.5208 12.5696 54.5208C12.8804 54.5208 13.1785 54.3974 13.3983 54.1777L16.1325 51.4434L17.6237 52.9347C18.4883 53.7993 19.638 54.2754 20.8608 54.2754C22.0835 54.2754 23.2332 53.7993 24.0978 52.9347L43.5209 33.5116L45.0322 35.0229C45.1409 35.1319 45.2701 35.2183 45.4123 35.2772C45.5545 35.3361 45.7069 35.3663 45.8608 35.3661C46.1608 35.3661 46.4606 35.2518 46.6895 35.0229L51.4477 30.2645C51.6675 30.0447 51.7909 29.7466 51.7909 29.4359C51.7909 29.1251 51.6675 28.827 51.4477 28.6072L44.2767 21.4362L48.9356 16.7773L53.8565 21.6982C53.9652 21.8072 54.0944 21.8936 54.2366 21.9525C54.3788 22.0114 54.5312 22.0416 54.6852 22.0414C54.9852 22.0414 55.2849 21.9271 55.5138 21.6982L59.6563 17.5557C60.1141 17.0982 60.1141 16.3562 59.6564 15.8985ZM24.7358 21.546L30.1576 26.9678C30.2663 27.0768 30.3954 27.1632 30.5376 27.2221C30.6799 27.281 30.8323 27.3112 30.9862 27.311C31.2862 27.311 31.586 27.1966 31.8149 26.9678C32.2725 26.5102 32.2725 25.7681 31.8149 25.3105L26.3931 19.8887L28.1454 18.1364L38.234 28.2251L32.8747 33.5844L22.7859 23.4956L24.7358 21.546ZM12.5696 51.6916L8.30798 47.4301L10.2137 45.5246L14.4751 49.7861L12.5696 51.6916ZM22.4403 51.2773C21.5694 52.1482 20.152 52.1483 19.2811 51.2773L8.72235 40.7187C7.8513 39.8476 7.8513 38.4302 8.72235 37.5593L10.3916 35.8901L13.2772 38.7757C13.5061 39.0046 13.8059 39.1189 14.1058 39.1189C14.4057 39.1189 14.7057 39.0046 14.9345 38.7757C15.3921 38.3181 15.3921 37.5761 14.9345 37.1183L12.0488 34.2327L13.9774 32.304L19.3991 37.7257C19.6279 37.9546 19.9278 38.0689 20.2277 38.0689C20.5276 38.0689 20.8276 37.9545 21.0563 37.7257C21.514 37.2681 21.514 36.5261 21.0563 36.0684L15.6345 30.6466L17.5632 28.718L20.4488 31.6036C20.6777 31.8325 20.9776 31.9468 21.2775 31.9468C21.5774 31.9468 21.8774 31.8325 22.1061 31.6036C22.5637 31.146 22.5637 30.4039 22.1061 29.9462L19.2205 27.0606L21.1281 25.153L31.2168 35.2417L23.596 42.8626C23.1384 43.3202 23.1384 44.0623 23.596 44.52C23.8249 44.7489 24.1248 44.8632 24.4247 44.8632C24.7245 44.8632 25.0245 44.7487 25.2533 44.52L32.8741 36.8991L34.8459 38.8709L22.4403 51.2773ZM36.5041 37.2137L34.5323 35.2417L39.8917 29.8822L41.8634 31.854L36.5041 37.2137ZM48.9618 29.4359L45.8608 32.5369L27.4627 14.1389L30.5638 11.0379L48.9618 29.4359ZM42.6195 19.7789L40.2208 17.3802L44.8797 12.7212L47.2784 15.1199L42.6195 19.7789ZM54.6855 19.2123L40.7875 5.31422L43.2727 2.82902L57.1707 16.727L54.6855 19.2123Z" fill="#F1CDB3"/>
<path d="M22.3156 46.7207C22.3016 46.6457 22.2781 46.5719 22.2488 46.5016C22.2197 46.4306 22.1836 46.3627 22.141 46.2988C22.0988 46.2344 22.0496 46.1746 21.9957 46.1207C21.9418 46.0668 21.882 46.0176 21.8176 45.9754C21.7537 45.9328 21.6858 45.8967 21.6148 45.8676C21.5445 45.8383 21.4707 45.816 21.3957 45.8008C21.2449 45.7703 21.0895 45.7703 20.9387 45.8008C20.8637 45.816 20.7898 45.8383 20.7195 45.8676C20.648 45.8969 20.5801 45.9332 20.5168 45.9754C20.4523 46.0176 20.3926 46.0668 20.3387 46.1207C20.2848 46.1746 20.2355 46.2344 20.1934 46.2988C20.1512 46.362 20.1148 46.4301 20.0855 46.5016C20.0562 46.5719 20.0328 46.6457 20.0187 46.7207C20.0035 46.7957 19.9953 46.8731 19.9953 46.9492C19.9953 47.0254 20.0035 47.1028 20.0187 47.1789C20.0328 47.2528 20.0562 47.3266 20.0855 47.3981C20.1148 47.4684 20.1512 47.5364 20.1934 47.5996C20.2355 47.6641 20.2848 47.7239 20.3387 47.7778C20.4474 47.8871 20.5769 47.9735 20.7195 48.0321C20.8613 48.0913 21.0135 48.1216 21.1672 48.1211C21.3208 48.1216 21.473 48.0913 21.6148 48.0321C21.7575 47.9735 21.887 47.8871 21.9957 47.7778C22.0496 47.7239 22.0988 47.6641 22.141 47.5996C22.1832 47.5364 22.2195 47.4684 22.2488 47.3981C22.2781 47.3266 22.3016 47.2528 22.3156 47.1789C22.3309 47.1028 22.3391 47.0254 22.3391 46.9492C22.3391 46.8731 22.3309 46.7957 22.3156 46.7207Z" fill="#F1CDB3"/>
</svg>
